X:1179
T:Westminster Volunteers March.
M:C
L:1/8
Q:1/2=88
I: :: ::
Z:Jack Campin * www.campin.me.uk * 2009
K:D
[V:1] d4    Te4    |f2 d>d d2 e2 |     f4             g4    | a2 f>f f2f>g|
[V:2] F4     A4    |d2 F>F F2 A2 |     d4             e4    | f2 d>d d2d>e|
%
[V:1] a2 b>a a>gg>f|g2 a>g g>ff>e|     f>df>a         a>gg>f| e2 e>e e4   |
[V:2] f2 g>f f>ee>d|e2 f>e e>dd>c|     d>Ad>f         f>ee>d| A2 A>A A4   |
%
[V:1] e2 e>e e2 f>d|e2 e>e e2 f>d|   (3ea^g (3fed     c2  B2| A2 A>A A2z2:|
[V:2] c2 c>c c2 d2 |c2 c>c c2 d2 |     c2   (3dcB     A2 ^G2| A2 A>A A2z2:|
%
[V:1] e4    Tf4    |g2 e>e e2 g2 |    (gf)(ed)        c2  B2|^A2 c>c c2F2 |
[V:2] c4    Td4    |e2 c>c c2 e2 |    (ed)(cB)       ^A2  G2| F2^A>A A2z2 |
%
[V:1] B>Bc>d c>cd>e|d>de>f e>ef>g|{g}(3fef {a}(3gfe   d2 Tc2| B2 B>B B2A2 |
[V:2] B2 B2 ^A>AB>c|B>Bc>d c>cd>e|{e}(3dcd {f}(3edc   B2T^A2| B2 B>B B2z2 |
%
[V:1] d4    Te4    |f2 d>d d2 e2 |     f4            Tg4    | a2 f>f f2f>g|
[V:2] F4     A4    |d2 F>F F2 A2 |     d4            Te4    | f2 d>d d2d>e|
%
[V:1] a>fd>d d2 e>f|g>ec>e A>ce>g|  {g}fe/f/ {a}gf/e/ d2 Tc2| d2 d>d d4  |]
[V:2] fd`AF  D2 c>d|e>cA>c F>Ac>e|  {e}dc/d/ {c}BA/G/ F2  E2| F2 F>F F4  |]
<end>
<start>
